public/img/logo/Logo-white.svg

<svg width="145" height="38" viewBox="0 0 145 38" fill="none" xmlns="http://www.w3.org/2000/svg">
<g filter="url(#filter0_dd_1894_485083)">
<g clip-path="url(#clip0_1894_485083)">
<rect x="3" y="2" width="32" height="32" rx="8" fill="white"/>
<rect x="3" y="2" width="32" height="32" rx="8" fill="url(#paint0_linear_1894_485083)"/>
<path fill-rule="evenodd" clip-rule="evenodd" d="M19 4.03885C11.2895 4.03885 5.03884 10.2895 5.03884 18C5.03884 25.7106 11.2895 31.9612 19 31.9612C26.7105 31.9612 32.9612 25.7106 32.9612 18C32.9612 10.2895 26.7105 4.03885 19 4.03885ZM4.96117 18C4.96117 10.2466 11.2466 3.96118 19 3.96118C26.7534 3.96118 33.0388 10.2466 33.0388 18C33.0388 25.7535 26.7534 32.0389 19 32.0389C11.2466 32.0389 4.96117 25.7535 4.96117 18Z" fill="#D0D5DD"/>
<path fill-rule="evenodd" clip-rule="evenodd" d="M19 14.0779C16.8338 14.0779 15.0777 15.834 15.0777 18.0002C15.0777 20.1665 16.8338 21.9226 19 21.9226C21.1663 21.9226 22.9223 20.1665 22.9223 18.0002C22.9223 15.834 21.1663 14.0779 19 14.0779ZM15 18.0002C15 15.7911 16.7909 14.0002 19 14.0002C21.2092 14.0002 23 15.7911 23 18.0002C23 20.2094 21.2092 22.0002 19 22.0002C16.7909 22.0002 15 20.2094 15 18.0002Z" fill="#D0D5DD"/>
<path fill-rule="evenodd" clip-rule="evenodd" d="M19 15.3201C17.5201 15.3201 16.3204 16.5198 16.3204 17.9997C16.3204 19.4796 17.5201 20.6793 19 20.6793C20.4799 20.6793 21.6796 19.4796 21.6796 17.9997C21.6796 16.5198 20.4799 15.3201 19 15.3201ZM16.2427 17.9997C16.2427 16.4769 17.4772 15.2424 19 15.2424C20.5228 15.2424 21.7573 16.4769 21.7573 17.9997C21.7573 19.5225 20.5228 20.757 19 20.757C17.4772 20.757 16.2427 19.5225 16.2427 17.9997Z" fill="#D0D5DD"/>
<path d="M18.9612 2H19.0388V34H18.9612V2Z" fill="#D0D5DD"/>
<path d="M35 17.9609L35 18.0386L3 18.0386L3 17.9609L35 17.9609Z" fill="#D0D5DD"/>
<path d="M29.602 2H29.6796V34H29.602V2Z" fill="#D0D5DD"/>
<path d="M13.6408 2H13.7184V34H13.6408V2Z" fill="#D0D5DD"/>
<path d="M24.2816 2H24.3592V34H24.2816V2Z" fill="#D0D5DD"/>
<path d="M8.32037 2H8.39804V34H8.32037V2Z" fill="#D0D5DD"/>
<path d="M35 28.6016L35 28.6792L3 28.6792L3 28.6016L35 28.6016Z" fill="#D0D5DD"/>
<path d="M35 12.6406L35 12.7183L3 12.7183L3 12.6406L35 12.6406Z" fill="#D0D5DD"/>
<path d="M35 23.2812L35 23.3589L3 23.3589L3 23.2812L35 23.2812Z" fill="#D0D5DD"/>
<path d="M35 7.32031L35 7.39798L3 7.39798L3 7.32031L35 7.32031Z" fill="#D0D5DD"/>
<g filter="url(#filter1_dd_1894_485083)">
<circle cx="19" cy="18" r="8" fill="url(#paint1_linear_1894_485083)"/>
</g>
<g filter="url(#filter2_b_1894_485083)">
<path d="M3 18H35V21.2C35 25.6804 35 27.9206 34.1281 29.6319C33.3611 31.1372 32.1372 32.3611 30.6319 33.1281C28.9206 34 26.6804 34 22.2 34H15.8C11.3196 34 9.07937 34 7.36808 33.1281C5.86278 32.3611 4.63893 31.1372 3.87195 29.6319C3 27.9206 3 25.6804 3 21.2V18Z" fill="white" fill-opacity="0.2"/>
</g>
</g>
<rect x="3.15" y="2.15" width="31.7" height="31.7" rx="7.85" stroke="#D0D5DD" stroke-width="0.3"/>
</g>
<path d="M54.0037 10.4545H56.6386V19.9574C56.6386 20.999 56.3924 21.9152 55.9 22.7059C55.4123 23.4967 54.7258 24.1146 53.8403 24.5596C52.9549 25 51.9204 25.2202 50.7366 25.2202C49.5482 25.2202 48.5113 25 47.6258 24.5596C46.7404 24.1146 46.0539 23.4967 45.5662 22.7059C45.0785 21.9152 44.8347 20.999 44.8347 19.9574V10.4545H47.4696V19.7372C47.4696 20.3433 47.6022 20.883 47.8673 21.3565C48.1372 21.83 48.516 22.2017 49.0037 22.4716C49.4914 22.7367 50.069 22.8693 50.7366 22.8693C51.4043 22.8693 51.9819 22.7367 52.4696 22.4716C52.962 22.2017 53.3408 21.83 53.606 21.3565C53.8711 20.883 54.0037 20.3433 54.0037 19.7372V10.4545Z" fill="white"/>
<path d="M61.96 18.6079V25H59.389V14.0909H61.8464V15.9446H61.9742C62.2252 15.3338 62.6253 14.8485 63.1745 14.4886C63.7285 14.1288 64.4127 13.9488 65.2271 13.9488C65.9799 13.9488 66.6357 14.1098 67.1944 14.4318C67.7578 14.7538 68.1934 15.2202 68.5012 15.8309C68.8137 16.4417 68.9676 17.1827 68.9629 18.054V25H66.3918V18.4517C66.3918 17.7225 66.2024 17.152 65.8236 16.74C65.4496 16.3281 64.9311 16.1221 64.2682 16.1221C63.8184 16.1221 63.4183 16.2216 63.068 16.4204C62.7223 16.6146 62.4501 16.8963 62.2512 17.2656C62.0571 17.6349 61.96 18.0824 61.96 18.6079Z" fill="white"/>
<path d="M77.0239 14.0909V16.0795H70.7526V14.0909H77.0239ZM72.3009 11.4773H74.8719V21.7187C74.8719 22.0644 74.924 22.3295 75.0282 22.5142C75.1371 22.6941 75.2791 22.8172 75.4543 22.8835C75.6295 22.9498 75.8236 22.9829 76.0367 22.9829C76.1977 22.9829 76.3445 22.9711 76.4771 22.9474C76.6144 22.9238 76.7185 22.9024 76.7896 22.8835L77.2228 24.8934C77.0855 24.9408 76.889 24.9929 76.6333 25.0497C76.3824 25.1065 76.0746 25.1397 75.71 25.1491C75.0661 25.1681 74.4861 25.071 73.97 24.8579C73.4539 24.6401 73.0443 24.304 72.7413 23.8494C72.443 23.3949 72.2962 22.8267 72.3009 22.1449V11.4773Z" fill="white"/>
<path d="M79.1741 25V14.0909H81.7452V25H79.1741ZM80.4668 12.5426C80.0596 12.5426 79.7092 12.4077 79.4156 12.1378C79.1221 11.8631 78.9753 11.5341 78.9753 11.1506C78.9753 10.7623 79.1221 10.4332 79.4156 10.1633C79.7092 9.88871 80.0596 9.7514 80.4668 9.7514C80.8787 9.7514 81.2291 9.88871 81.5179 10.1633C81.8115 10.4332 81.9582 10.7623 81.9582 11.1506C81.9582 11.5341 81.8115 11.8631 81.5179 12.1378C81.2291 12.4077 80.8787 12.5426 80.4668 12.5426Z" fill="white"/>
<path d="M89.8364 14.0909V16.0795H83.5651V14.0909H89.8364ZM85.1134 11.4773H87.6844V21.7187C87.6844 22.0644 87.7365 22.3295 87.8407 22.5142C87.9496 22.6941 88.0916 22.8172 88.2668 22.8835C88.442 22.9498 88.6362 22.9829 88.8492 22.9829C89.0102 22.9829 89.157 22.9711 89.2896 22.9474C89.4269 22.9238 89.531 22.9024 89.6021 22.8835L90.0353 24.8934C89.898 24.9408 89.7015 24.9929 89.4458 25.0497C89.1949 25.1065 88.8871 25.1397 88.5225 25.1491C87.8786 25.1681 87.2986 25.071 86.7825 24.8579C86.2664 24.6401 85.8568 24.304 85.5538 23.8494C85.2555 23.3949 85.1087 22.8267 85.1134 22.1449V11.4773Z" fill="white"/>
<path d="M94.792 10.4545V25H92.221V10.4545H94.792Z" fill="white"/>
<path d="M102.265 25.2131C101.172 25.2131 100.227 24.9858 99.4316 24.5312C98.6409 24.072 98.0325 23.4233 97.6063 22.5852C97.1802 21.7424 96.9671 20.7505 96.9671 19.6094C96.9671 18.4872 97.1802 17.5024 97.6063 16.6548C98.0372 15.8025 98.6385 15.1397 99.4103 14.6662C100.182 14.188 101.089 13.9488 102.13 13.9488C102.803 13.9488 103.437 14.0577 104.034 14.2756C104.635 14.4886 105.166 14.8201 105.625 15.2699C106.089 15.7197 106.453 16.2926 106.719 16.9886C106.984 17.6799 107.116 18.5038 107.116 19.4602V20.2486H98.1745V18.5156H104.652C104.647 18.0232 104.541 17.5852 104.332 17.2017C104.124 16.8134 103.833 16.508 103.459 16.2855C103.089 16.063 102.658 15.9517 102.166 15.9517C101.64 15.9517 101.179 16.0795 100.781 16.3352C100.383 16.5862 100.073 16.9176 99.8506 17.3295C99.6328 17.7367 99.5216 18.1842 99.5168 18.6719V20.1846C99.5168 20.8191 99.6328 21.3636 99.8648 21.8182C100.097 22.268 100.421 22.6136 100.838 22.8551C101.255 23.0918 101.742 23.2102 102.301 23.2102C102.675 23.2102 103.014 23.1581 103.317 23.054C103.62 22.9451 103.882 22.7864 104.105 22.5781C104.327 22.3698 104.496 22.1117 104.609 21.804L107.01 22.0738C106.858 22.7083 106.569 23.2623 106.143 23.7358C105.722 24.2045 105.182 24.5691 104.524 24.8295C103.866 25.0852 103.113 25.2131 102.265 25.2131Z" fill="white"/>
<path d="M113.34 25.1917C112.483 25.1917 111.716 24.9716 111.038 24.5312C110.361 24.0909 109.826 23.4517 109.433 22.6136C109.04 21.7756 108.844 20.7576 108.844 19.5596C108.844 18.3475 109.043 17.3248 109.44 16.4915C109.843 15.6534 110.385 15.0213 111.067 14.5952C111.749 14.1643 112.509 13.9488 113.347 13.9488C113.986 13.9488 114.511 14.0577 114.923 14.2756C115.335 14.4886 115.662 14.7467 115.904 15.0497C116.145 15.348 116.332 15.6297 116.465 15.8949H116.571V10.4545H119.149V25H116.621V23.2812H116.465C116.332 23.5464 116.14 23.8281 115.889 24.1264C115.638 24.42 115.307 24.6709 114.895 24.8792C114.483 25.0876 113.965 25.1917 113.34 25.1917ZM114.057 23.0824C114.601 23.0824 115.065 22.9356 115.449 22.642C115.833 22.3437 116.124 21.9294 116.323 21.3991C116.521 20.8688 116.621 20.2509 116.621 19.5454C116.621 18.8399 116.521 18.2268 116.323 17.7059C116.128 17.1851 115.84 16.7803 115.456 16.4915C115.077 16.2026 114.611 16.0582 114.057 16.0582C113.484 16.0582 113.006 16.2074 112.622 16.5057C112.239 16.804 111.95 17.2159 111.756 17.7415C111.562 18.267 111.465 18.8684 111.465 19.5454C111.465 20.2273 111.562 20.8357 111.756 21.3707C111.955 21.901 112.246 22.3201 112.629 22.6278C113.018 22.9309 113.494 23.0824 114.057 23.0824Z" fill="white"/>
<path d="M136.133 10.4545H138.768V19.9574C138.768 20.999 138.521 21.9152 138.029 22.7059C137.541 23.4967 136.855 24.1146 135.969 24.5596C135.084 25 134.049 25.2202 132.866 25.2202C131.677 25.2202 130.64 25 129.755 24.5596C128.869 24.1146 128.183 23.4967 127.695 22.7059C127.207 21.9152 126.964 20.999 126.964 19.9574V10.4545H129.599V19.7372C129.599 20.3433 129.731 20.883 129.996 21.3565C130.266 21.83 130.645 22.2017 131.133 22.4716C131.62 22.7367 132.198 22.8693 132.866 22.8693C133.533 22.8693 134.111 22.7367 134.599 22.4716C135.091 22.2017 135.47 21.83 135.735 21.3565C136 20.883 136.133 20.3433 136.133 19.7372V10.4545Z" fill="white"/>
<path d="M144.266 10.4545V25H141.632V10.4545H144.266Z" fill="white"/>
<defs>
<filter id="filter0_dd_1894_485083" x="0" y="0" width="38" height="38" filterUnits="userSpaceOnUse" color-interpolation-filters="sRGB">
<feFlood flood-opacity="0" result="BackgroundImageFix"/>
<feColorMatrix in="SourceAlpha" type="matrix" values="0 0 0 0 0 0 0 0 0 0 0 0 0 0 0 0 0 0 127 0" result="hardAlpha"/>
<feOffset dy="1"/>
<feGaussianBlur stdDeviation="1"/>
<feColorMatrix type="matrix" values="0 0 0 0 0.0627451 0 0 0 0 0.0941176 0 0 0 0 0.156863 0 0 0 0.06 0"/>
<feBlend mode="normal" in2="BackgroundImageFix" result="effect1_dropShadow_1894_485083"/>
<feColorMatrix in="SourceAlpha" type="matrix" values="0 0 0 0 0 0 0 0 0 0 0 0 0 0 0 0 0 0 127 0" result="hardAlpha"/>
<feOffset dy="1"/>
<feGaussianBlur stdDeviation="1.5"/>
<feColorMatrix type="matrix" values="0 0 0 0 0.0627451 0 0 0 0 0.0941176 0 0 0 0 0.156863 0 0 0 0.1 0"/>
<feBlend mode="normal" in2="effect1_dropShadow_1894_485083" result="effect2_dropShadow_1894_485083"/>
<feBlend mode="normal" in="SourceGraphic" in2="effect2_dropShadow_1894_485083" result="shape"/>
</filter>
<filter id="filter1_dd_1894_485083" x="8" y="8" width="22" height="22" filterUnits="userSpaceOnUse" color-interpolation-filters="sRGB">
<feFlood flood-opacity="0" result="BackgroundImageFix"/>
<feColorMatrix in="SourceAlpha" type="matrix" values="0 0 0 0 0 0 0 0 0 0 0 0 0 0 0 0 0 0 127 0" result="hardAlpha"/>
<feOffset dy="1"/>
<feGaussianBlur stdDeviation="1"/>
<feColorMatrix type="matrix" values="0 0 0 0 0.0627451 0 0 0 0 0.0941176 0 0 0 0 0.156863 0 0 0 0.06 0"/>
<feBlend mode="normal" in2="BackgroundImageFix" result="effect1_dropShadow_1894_485083"/>
<feColorMatrix in="SourceAlpha" type="matrix" values="0 0 0 0 0 0 0 0 0 0 0 0 0 0 0 0 0 0 127 0" result="hardAlpha"/>
<feOffset dy="1"/>
<feGaussianBlur stdDeviation="1.5"/>
<feColorMatrix type="matrix" values="0 0 0 0 0.0627451 0 0 0 0 0.0941176 0 0 0 0 0.156863 0 0 0 0.1 0"/>
<feBlend mode="normal" in2="effect1_dropShadow_1894_485083" result="effect2_dropShadow_1894_485083"/>
<feBlend mode="normal" in="SourceGraphic" in2="effect2_dropShadow_1894_485083" result="shape"/>
</filter>
<filter id="filter2_b_1894_485083" x="-2" y="13" width="42" height="26" filterUnits="userSpaceOnUse" color-interpolation-filters="sRGB">
<feFlood flood-opacity="0" result="BackgroundImageFix"/>
<feGaussianBlur in="BackgroundImageFix" stdDeviation="2.5"/>
<feComposite in2="SourceAlpha" operator="in" result="effect1_backgroundBlur_1894_485083"/>
<feBlend mode="normal" in="SourceGraphic" in2="effect1_backgroundBlur_1894_485083" result="shape"/>
</filter>
<linearGradient id="paint0_linear_1894_485083" x1="19" y1="2" x2="19" y2="34" gradientUnits="userSpaceOnUse">
<stop stop-color="white"/>
<stop offset="1" stop-color="#D0D5DD"/>
</linearGradient>
<linearGradient id="paint1_linear_1894_485083" x1="15" y1="26" x2="23" y2="10" gradientUnits="userSpaceOnUse">
<stop stop-color="#53389E"/>
<stop offset="1" stop-color="#6941C6"/>
</linearGradient>
<clipPath id="clip0_1894_485083">
<rect x="3" y="2" width="32" height="32" rx="8" fill="white"/>
</clipPath>
</defs>
</svg>

<svg width="145" height="38" fill="none" xmlns="http://www.w3.org/2000/svg"><g filter="url(#a)"><g clip-path="url(#b)"><rect x="3" y="2" width="32" height="32" rx="8" fill="#fff"/><rect x="3" y="2" width="32" height="32" rx="8" fill="url(#c)"/><path fill-rule="evenodd" clip-rule="evenodd" d="M19 4.039c-7.71 0-13.961 6.25-13.961 13.961 0 7.71 6.25 13.961 13.961 13.961 7.71 0 13.961-6.25 13.961-13.961 0-7.71-6.25-13.961-13.961-13.961ZM4.961 18c0-7.753 6.286-14.039 14.039-14.039S33.039 10.247 33.039 18 26.753 32.039 19 32.039 4.961 25.753 4.961 18Z" fill="#D0D5DD"/><path fill-rule="evenodd" clip-rule="evenodd" d="M19 14.078a3.922 3.922 0 1 0 0 7.845 3.922 3.922 0 0 0 0-7.845ZM15 18a4 4 0 1 1 8 0 4 4 0 0 1-8 0Z" fill="#D0D5DD"/><path fill-rule="evenodd" clip-rule="evenodd" d="M19 15.32a2.68 2.68 0 1 0 0 5.36 2.68 2.68 0 0 0 0-5.36ZM16.243 18a2.757 2.757 0 1 1 5.514 0 2.757 2.757 0 0 1-5.514 0Z" fill="#D0D5DD"/><path d="M18.961 2h.078v32h-.078V2Z" fill="#D0D5DD"/><path d="M35 17.96v.079H3v-.078h32Z" fill="#D0D5DD"/><path d="M29.602 2h.078v32h-.078V2ZM13.64 2h.078v32h-.077V2ZM24.282 2h.077v32h-.077V2ZM8.32 2h.078v32H8.32V2Z" fill="#D0D5DD"/><path d="M35 28.602v.077H3v-.077h32ZM35 12.64v.078H3v-.077h32ZM35 23.281v.078H3v-.078h32ZM35 7.32v.078H3V7.32h32Z" fill="#D0D5DD"/><g filter="url(#d)"><circle cx="19" cy="18" r="8" fill="url(#e)"/></g><g filter="url(#f)"><path d="M3 18h32v3.2c0 4.48 0 6.72-.872 8.432a8 8 0 0 1-3.496 3.496C28.92 34 26.68 34 22.2 34h-6.4c-4.48 0-6.72 0-8.432-.872a8 8 0 0 1-3.496-3.496C3 27.92 3 25.68 3 21.2V18Z" fill="#fff" fill-opacity=".2"/></g></g><rect x="3.15" y="2.15" width="31.7" height="31.7" rx="7.85" stroke="#D0D5DD" stroke-width=".3"/></g><path d="M54.004 10.454h2.635v9.503c0 1.042-.247 1.958-.739 2.749-.488.79-1.174 1.409-2.06 1.854-.885.44-1.92.66-3.103.66-1.189 0-2.226-.22-3.111-.66-.886-.445-1.572-1.063-2.06-1.854-.488-.79-.731-1.707-.731-2.749v-9.503h2.635v9.283c0 .606.132 1.146.397 1.62.27.473.649.845 1.137 1.115.487.265 1.065.397 1.733.397.667 0 1.245-.132 1.733-.397.492-.27.87-.642 1.136-1.116.265-.473.398-1.013.398-1.619v-9.282ZM61.96 18.608V25h-2.571V14.09h2.457v1.855h.128a3.119 3.119 0 0 1 1.2-1.456c.554-.36 1.239-.54 2.053-.54.753 0 1.409.16 1.967.483.564.322 1 .788 1.307 1.399.313.61.467 1.352.462 2.223V25h-2.571v-6.548c0-.73-.19-1.3-.568-1.712-.374-.412-.893-.618-1.556-.618-.45 0-.85.1-1.2.298a2.069 2.069 0 0 0-.817.846c-.194.369-.291.816-.291 1.342ZM77.024 14.09v1.99h-6.271v-1.99h6.27ZM72.3 11.478h2.57V21.72c0 .345.053.61.157.795.11.18.251.303.426.37.175.066.37.099.583.099.16 0 .307-.012.44-.036.137-.023.242-.045.313-.063l.433 2.01c-.138.047-.334.099-.59.156-.25.056-.558.09-.923.1-.644.018-1.224-.079-1.74-.292a2.706 2.706 0 0 1-1.229-1.009c-.298-.454-.445-1.022-.44-1.704V11.477ZM79.174 25V14.09h2.571V25h-2.57Zm1.293-12.457a1.5 1.5 0 0 1-1.051-.405 1.305 1.305 0 0 1-.44-.987c0-.389.146-.718.44-.988a1.486 1.486 0 0 1 1.05-.412c.413 0 .763.138 1.052.412.293.27.44.6.44.988 0 .383-.147.712-.44.987-.289.27-.64.405-1.051.405ZM89.836 14.09v1.99h-6.27v-1.99h6.27Zm-4.723-2.613h2.571V21.72c0 .345.053.61.157.795.109.18.25.303.426.37.175.066.37.099.582.099.161 0 .308-.012.44-.036.138-.023.242-.045.313-.063l.433 2.01c-.137.047-.334.099-.59.156-.25.056-.558.09-.922.1-.644.018-1.224-.079-1.74-.292a2.706 2.706 0 0 1-1.23-1.009c-.297-.454-.444-1.022-.44-1.704V11.477ZM94.792 10.454V25h-2.571V10.454h2.571ZM102.265 25.213c-1.093 0-2.038-.227-2.833-.682a4.617 4.617 0 0 1-1.826-1.946c-.426-.843-.639-1.835-.639-2.976 0-1.122.213-2.107.64-2.954.43-.853 1.031-1.515 1.803-1.989.772-.478 1.679-.717 2.72-.717.673 0 1.307.109 1.904.327a4.302 4.302 0 0 1 1.591.994c.464.45.828 1.023 1.094 1.719.265.69.397 1.515.397 2.471v.789h-8.942v-1.733h6.478a2.76 2.76 0 0 0-.32-1.314 2.32 2.32 0 0 0-.873-.917c-.37-.222-.801-.333-1.293-.333-.526 0-.987.127-1.385.383a2.64 2.64 0 0 0-.93.994 2.862 2.862 0 0 0-.334 1.343v1.513c0 .634.116 1.179.348 1.633.232.45.556.796.973 1.037.417.237.904.355 1.463.355.374 0 .713-.052 1.016-.156.303-.109.565-.268.788-.476a1.98 1.98 0 0 0 .504-.774l2.401.27a3.75 3.75 0 0 1-.867 1.662c-.421.468-.961.833-1.619 1.093-.658.256-1.411.384-2.259.384ZM113.34 25.192c-.857 0-1.624-.22-2.302-.66-.677-.441-1.212-1.08-1.605-1.918-.393-.838-.589-1.856-.589-3.054 0-1.212.199-2.235.596-3.069.403-.838.945-1.47 1.627-1.896a4.18 4.18 0 0 1 2.28-.646c.639 0 1.164.109 1.576.327.412.213.739.47.981.774.241.298.428.58.561.845h.106v-5.44h2.578V25h-2.528v-1.719h-.156a4.415 4.415 0 0 1-.576.845 3.161 3.161 0 0 1-.994.753c-.412.209-.93.313-1.555.313Zm.717-2.11c.544 0 1.008-.146 1.392-.44.384-.298.675-.713.874-1.243.198-.53.298-1.148.298-1.854 0-.705-.1-1.318-.298-1.84-.195-.52-.483-.925-.867-1.213-.379-.29-.845-.434-1.399-.434-.573 0-1.051.15-1.435.448-.383.298-.672.71-.866 1.235-.194.526-.291 1.127-.291 1.804 0 .682.097 1.29.291 1.826.199.53.49.95.873 1.257.389.303.865.454 1.428.454ZM136.133 10.454h2.635v9.503c0 1.042-.247 1.958-.739 2.749-.488.79-1.174 1.409-2.06 1.854-.885.44-1.92.66-3.103.66-1.189 0-2.226-.22-3.111-.66-.886-.445-1.572-1.063-2.06-1.854-.488-.79-.731-1.707-.731-2.749v-9.503h2.635v9.283c0 .606.132 1.146.397 1.62.27.473.649.845 1.137 1.115.487.265 1.065.397 1.733.397.667 0 1.245-.132 1.733-.397.492-.27.871-.642 1.136-1.116.265-.473.398-1.013.398-1.619v-9.282ZM144.266 10.454V25h-2.634V10.454h2.634Z" fill="#fff"/><defs><filter id="a" x="0" y="0" width="38" height="38" filterUnits="userSpaceOnUse" color-interpolation-filters="sRGB"><feFlood flood-opacity="0" result="BackgroundImageFix"/><feColorMatrix in="SourceAlpha" values="0 0 0 0 0 0 0 0 0 0 0 0 0 0 0 0 0 0 127 0" result="hardAlpha"/><feOffset dy="1"/><feGaussianBlur stdDeviation="1"/><feColorMatrix values="0 0 0 0 0.0627451 0 0 0 0 0.0941176 0 0 0 0 0.156863 0 0 0 0.06 0"/><feBlend in2="BackgroundImageFix" result="effect1_dropShadow_1894_485083"/><feColorMatrix in="SourceAlpha" values="0 0 0 0 0 0 0 0 0 0 0 0 0 0 0 0 0 0 127 0" result="hardAlpha"/><feOffset dy="1"/><feGaussianBlur stdDeviation="1.5"/><feColorMatrix values="0 0 0 0 0.0627451 0 0 0 0 0.0941176 0 0 0 0 0.156863 0 0 0 0.1 0"/><feBlend in2="effect1_dropShadow_1894_485083" result="effect2_dropShadow_1894_485083"/><feBlend in="SourceGraphic" in2="effect2_dropShadow_1894_485083" result="shape"/></filter><filter id="d" x="8" y="8" width="22" height="22" filterUnits="userSpaceOnUse" color-interpolation-filters="sRGB"><feFlood flood-opacity="0" result="BackgroundImageFix"/><feColorMatrix in="SourceAlpha" values="0 0 0 0 0 0 0 0 0 0 0 0 0 0 0 0 0 0 127 0" result="hardAlpha"/><feOffset dy="1"/><feGaussianBlur stdDeviation="1"/><feColorMatrix values="0 0 0 0 0.0627451 0 0 0 0 0.0941176 0 0 0 0 0.156863 0 0 0 0.06 0"/><feBlend in2="BackgroundImageFix" result="effect1_dropShadow_1894_485083"/><feColorMatrix in="SourceAlpha" values="0 0 0 0 0 0 0 0 0 0 0 0 0 0 0 0 0 0 127 0" result="hardAlpha"/><feOffset dy="1"/><feGaussianBlur stdDeviation="1.5"/><feColorMatrix values="0 0 0 0 0.0627451 0 0 0 0 0.0941176 0 0 0 0 0.156863 0 0 0 0.1 0"/><feBlend in2="effect1_dropShadow_1894_485083" result="effect2_dropShadow_1894_485083"/><feBlend in="SourceGraphic" in2="effect2_dropShadow_1894_485083" result="shape"/></filter><filter id="f" x="-2" y="13" width="42" height="26" filterUnits="userSpaceOnUse" color-interpolation-filters="sRGB"><feFlood flood-opacity="0" result="BackgroundImageFix"/><feGaussianBlur in="BackgroundImageFix" stdDeviation="2.5"/><feComposite in2="SourceAlpha" operator="in" result="effect1_backgroundBlur_1894_485083"/><feBlend in="SourceGraphic" in2="effect1_backgroundBlur_1894_485083" result="shape"/></filter><linearGradient id="c" x1="19" y1="2" x2="19" y2="34" gradientUnits="userSpaceOnUse"><stop stop-color="#fff"/><stop offset="1" stop-color="#D0D5DD"/></linearGradient><linearGradient id="e" x1="15" y1="26" x2="23" y2="10" gradientUnits="userSpaceOnUse"><stop stop-color="#53389E"/><stop offset="1" stop-color="#6941C6"/></linearGradient><clipPath id="b"><rect x="3" y="2" width="32" height="32" rx="8" fill="#fff"/></clipPath></defs></svg>
